X: 295
T: Tui dengdeng
L: 1/8
M: 2/4
K: Bb
B c f d/ c/ [I:setbarnb 1]| 
c dF2 | 
B c/ c/ f c/ d/ | 
c DF2 | 
B c f d/ c/ | 
f c d c | 
f c f d/ c/ | 
B2B2 | 
d c/ c/ B c | 
B c c/ B/ G/ G/ | 
F2F2 | 
F GF2 |]

@@@ Tune index: 9169
